X:1
T:Title
%%score ( 1 2 ) { ( 3 5 ) | 4 }
L:1/8
Q:1/4=120
M:4/4
K:F
V:1 treble nm="Gesang"
V:2 treble 
V:3 treble nm="MusicXML Part"
V:5 treble 
V:4 bass 
V:1
"^Johannes Brahms""^Marienwürmchen""^Andante" CCC | F3 F G3 G | %2
w: Ma- ri- en-|würm- chen, se- tze|
w: Ma- ri- en-|würm- chen, flie- ge|
w: Ma- ri- en-|würm- chen, flie- ge|
"^Nr.13 aus: \"Volks-Kinderlieder\", WoO 31" A4 z ABA | (A2 G2) z GAG |[M:4/4] x8 | x8 | x8 | x8 | %8
w: dich auf mei- ne|Hand, * auf mei- ne|||||
w: weg, dein Häus- chen|brennt, * die Kin- der|||||
w: hin zu Nach- bars|Kind, * zu Nach- bars|||||
 x4 z2 FA | B3 B BBGG | E4 z2 (GB) | A2 F2 z2 (GB) | A2 F2 B3 G | E2 F2 z :| %14
w: |dei- ne bun- ten Flü- gel|sehn, bun- te|Flü- gel, bun- te|Flü- gel mei- ne|Freu- de!|
w: |würm- chen flieg * hin *|ein, dei- ne|Kin- der, dei- ne|Kin- der schrei- en|seh- re!|
w: |dei- ne bun- ten Flü- gel|sehn, und *|grüss sie, und *|grüss sie al- le|bei- de!|
V:2
 x3 | x8 | x8 | x8 |[M:4/4] (G2 F2) z FGA | B4 G4 | E2 F2 z FFA | c3 c c3 A | F4 x FFA | x8 | x8 | %11
w: ||||Hand, * ich tu' dir|nichts zu|Lei- de; es soll dir|nichts zu Leid ge-|schehn, * will nur|||
w: ||||schrein * so seh- re,|ach so|seh- re; die bö- se|Spin- ne spinnt sie|ein, Ma- ri- en-|||
w: ||||Kind, * sie tun dir|nichts zu|Lei- de; es soll dir|ja kein Leid ge-|schehn, * sie woll'n|||
 x8 | x8 | x5 :| %14
w: |||
w: |||
w: |||
V:3
 z"^Klavier" C2 | FA,CF GCEG | ACFA cFAc | fAGf eGeG |[M:4/4] eGFe dFdc | BDGB GG,DG | %6
 EB,FA, C z z2 | [Ac]C[Ac]C [Ac]C[FA]C | [DF]A,[DF]A, [DF]A,[DF]A, | x8 | x8 | z2 (.A.c) B2 G2 | %12
 z2 FA G2 D2 | [B,C]2 C2 x :| %14
V:4
 z C,2 | [A,,F,]2 z (([A,,F,] [C,G,]2)) z (([C,G,] | [F,A,]2)) z (([F,A,] [A,C]2)) z (([A,C] | %3
 [B,D]2)) z (([B,D] [CE]2)) z [G,B,] |[M:4/4] (([A,C]2 z)) (([A,C] [B,D]2)) z [A,C] | %5
 [G,B,]4 B,,4 | C,2 F,,2 z4 | F,4 A,,4 | D,4 D,,4 | G,,4 B,,,4 | C,,4 C,4 | %11
"^© 2009 by CPDL.\nThis edition can be fully distributed, duplicated, performed, and recorded.\nEdited by Juliane Claudi." C,,4 C,4 | %12
 D,,2 D,2 G,,2 B,,2 | C,2 F,,2 z :| %14
V:5
 x3 | x8 | x8 | x8 |[M:4/4] x8 | x8 | x8 | x8 | x8 | [DG]B,[DG]B, [DG]G,[DG]G, | %10
 [CE]G,[CE]G, ECEC | FCFC GCEC | FA,DA, B,G,DG, | x2 A,2 z :| %14

